packages/kaspersky-hexa-ui-icons/src/iconsSVGs/16/Timer1.svg

<svg width="16" height="16" viewBox="0 0 16 16" fill="none" xmlns="http://www.w3.org/2000/svg">
<path d="M10.9991 5.85531C11.2527 6.10933 11.2524 6.52089 10.9984 6.77455L9.22938 8.54101C9.25561 8.64301 9.26955 8.74994 9.26955 8.86012C9.26955 9.56583 8.69746 10.1379 7.99175 10.1379C7.28604 10.1379 6.71395 9.56583 6.71395 8.86012C6.71395 8.15441 7.28604 7.58232 7.99175 7.58232C8.10152 7.58232 8.20806 7.59616 8.30972 7.62219L10.0798 5.85465C10.3338 5.60099 10.7454 5.60128 10.9991 5.85531Z" fill="black"/>
<path fill-rule="evenodd" clip-rule="evenodd" d="M8.65 1.50229C8.65 1.14331 8.35898 0.852295 8 0.852295C7.64102 0.852295 7.35 1.14331 7.35 1.50229V1.87981C3.78874 2.20772 1 5.2032 1 8.85003C1 12.716 4.13401 15.85 8 15.85C11.866 15.85 15 12.716 15 8.85003C15 7.14823 14.3927 5.58826 13.383 4.37503C13.4101 4.35528 13.4361 4.33318 13.4605 4.30871L14.0603 3.70894L14.0678 3.70129L14.3754 4.00882C14.6292 4.26266 15.0408 4.26266 15.2946 4.00882C15.5485 3.75498 15.5485 3.34342 15.2946 3.08958L13.7604 1.55541C13.5066 1.30157 13.095 1.30158 12.8412 1.55542C12.5874 1.80926 12.5874 2.22082 12.8412 2.47466L13.1487 2.78218L13.1411 2.78969L12.5413 3.38947C12.5168 3.41393 12.4947 3.43987 12.475 3.46699C11.418 2.58734 10.0978 2.01312 8.65 1.87981V1.50229ZM13.7 8.85003C13.7 11.998 11.148 14.55 8 14.55C4.85198 14.55 2.3 11.998 2.3 8.85003C2.3 5.702 4.85198 3.15003 8 3.15003C11.148 3.15003 13.7 5.702 13.7 8.85003Z" fill="black"/>
</svg>

<svg xmlns="http://www.w3.org/2000/svg" width="16" height="16" fill="none" viewBox="0 0 16 16"><path fill="#000" d="M10.9991 5.8553a.65.65 0 0 1-.0007.9192L9.2294 8.541c.0262.102.0402.209.0402.3191 0 .7057-.5721 1.2778-1.2779 1.2778S6.714 9.5659 6.714 8.8601c0-.7057.5721-1.2778 1.2779-1.2778.1097 0 .2163.0139.318.0399l1.77-1.7675a.65.65 0 0 1 .9193.0006"/><path fill="#000" fill-rule="evenodd" d="M8.65 1.5023a.65.65 0 0 0-1.3 0v.3775C3.7887 2.2078 1 5.2032 1 8.85c0 3.866 3.134 7 7 7s7-3.134 7-7c0-1.7018-.6073-3.2617-1.617-4.475a.65.65 0 0 0 .0775-.0663l.5998-.5998.0075-.0076.3076.3075a.65.65 0 1 0 .9192-.9192l-1.5342-1.5342a.65.65 0 1 0-.9192.9193l.3075.3075-.0076.0075-.5998.5998a.65.65 0 0 0-.0663.0775c-1.057-.8797-2.3772-1.4539-3.825-1.5872zM13.7 8.85c0 3.148-2.552 5.7-5.7 5.7s-5.7-2.552-5.7-5.7 2.552-5.7 5.7-5.7 5.7 2.552 5.7 5.7" clip-rule="evenodd"/></svg>
